resources/haticons/SVG/format_bold.svg

<!-- Generated by IcoMoon.io -->
<svg version="1.1" xmlns="http://www.w3.org/2000/svg" width="24" height="24" viewBox="0 0 24 24">
<title>format_bold</title>
<path d="M13.5 15.516q0.656 0 1.078-0.445t0.422-1.055-0.422-1.055-1.078-0.445h-3.516v3h3.516zM9.984 6.516v3h3q0.609 0 1.055-0.445t0.445-1.055-0.445-1.055-1.055-0.445h-3zM15.609 10.781q2.156 0.984 2.156 3.422 0 1.594-1.055 2.695t-2.648 1.102h-7.078v-14.016h6.281q1.688 0 2.836 1.172t1.148 2.859-1.641 2.766z"></path>
</svg>

<svg xmlns="http://www.w3.org/2000/svg" width="24" height="24"><path d="M13.5 15.516q.656 0 1.078-.445T15 14.016t-.422-1.055-1.078-.445H9.984v3H13.5zm-3.516-9v3h3q.609 0 1.055-.445t.445-1.055-.445-1.055-1.055-.445h-3zm5.625 4.265q2.156.984 2.156 3.422 0 1.594-1.055 2.695T14.062 18H6.984V3.984h6.281q1.688 0 2.836 1.172t1.148 2.859-1.641 2.766z"/></svg>
